!!!COM:	Bach, Johann Sebastian
!!!OMV:	Herr Jesu Christ, du h&ouml;chstes Gut
!!!OTL:	Herr Jesu Christ, du h&ouml;chstes Gut
**kern	**fb	**kern	**kern	**kern	**kern
*part5	*part5	*part4	*part3	*part2	*part1
*staff5	*	*staff4	*staff3	*staff2	*staff1
*I"Continuo	*	*I"Voice	*I"Voice	*I"Voice	*I"Voice
*I'Cont.	*	*I'V	*I'V	*I'V	*I'V
*clefF4	*	*clefF4	*clefGv2	*clefG2	*clefG2
*Trd0c0	*	*	*	*	*
*k[b-e-]	*	*k[b-e-]	*k[b-e-]	*k[b-e-]	*k[b-e-]
*M4/4	*	*M4/4	*M4/4	*M4/4	*M4/4
4G	.	4G	4B-	4d	4g
=2	=2	=2	=2	=2	=2
4C	6 5	4C	4A	4e-	4g
4D	#	4D	4A	4d	4f#X
4En	7	4En	4G	4d	4g
4F#X	6 5	4F#X	4d	4c	4a
=3	=3	=3	=3	=3	=3
4G	.	4G	8dL	8B-L	4b-
.	.	.	8enJ	8cJ	.
4D	.	4D	4f#X	8dL	4a
.	.	.	.	8cJ	.
4GG;	.	4GG;	4g;	4B-;	4g;
4G	.	4G	4B-	8dL	4g
.	.	.	.	8enJ	.
=4	=4	=4	=4	=4	=4
8FL	.	8FnL	4c	4fn	4a
8E-J	.	8E-J	.	.	.
8DL	.	8DL	8dL	4f	4a
8CJ	.	8CJ	8e-J	.	.
8BB-L	.	8BB-L	4f	4.b-	4dd
8DJ	.	8DJ	.	.	.
8EnL	.	8EnL	8cL	.	4cc
8F#XJ	.	8F#XJ	8dJ	8a	.
=	=	=	=	=	=
8GL	.	8GL	8GL	8a	2b-
8A	.	8A	8DJ	16gLL	.
.	.	.	.	16f#XJJ	.
8B-	.	8B-	4d	4g	.
8cJ	.	8cJ	.	.	.
4d;	.	4d;	4d;	4f#;	4a;
=5:|!	=5:|!	=5:|!	=5:|!	=5:|!	=5:|!
4B-	.	4B-	8FnL	8dL	4dd
.	.	.	8GJ	8e-J	.
=6	=6	=6	=6	=6	=6
!!linebreak:original
4A	.	4A	4A	4.fn	4cc
4G	.	4G	4B-	.	4b-
.	.	.	.	8en	.
4F	.	4F	4c	4f	4a
4E-	.	4E-	4c	4g	4cc
=7	=7	=7	=7	=7	=7
8DL	.	8DL	4d	4g	4b-
8CJ	.	8CJ	.	.	.
4D	.	4D	8dL	4f#X	4a
.	.	.	8cJ	.	.
4GG;	.	4GG;	4B-;	4d;	4g;
4C	.	4C	4c	4en	4b-
=8	=8	=8	=8	=8	=8
4FF	.	4FF	4c	4fn	4a
4GG	.	4GG	4B-	8enL	4g
.	.	.	.	8dJ	.
4AA	.	4AA	8AL	4c#X	8fL
.	.	.	8GJ	.	8enJ
8BB-L	.	8BB-L	4F	4d	8dL
8CJ	.	8CnJ	.	.	8eJ
=9	=9	=9	=9	=9	=9
4D	.	4D	4B-	4d	4f
4En	.	4En	8AL	4cn	4g
.	.	.	8GJ	.	.
4F;	.	4F;	4F;	4c;	4a;
4E-X	.	4E-X	4G	4c	8gL
.	.	.	.	.	8aJ
=10	=10	=10	=10	=10	=10
4D	.	4D	4F	4d	4b-
4C	.	4C	8GL	4e-	4cc
.	.	.	8AJ	.	.
8BB-L	.	8BB-L	4.B-	8dL	4.dd
8DJ	.	8DJ	.	8f#XJ	.
8EnL	.	8EnL	.	8gL	.
8F#XJ	.	8F#XJ	8A	8aJ	8cc
=11	=11	=11	=11	=11	=11
!!pagebreak:original
8GL	.	8GL	4d	8b-L	4b-
8F	.	8Fn	.	8aJ	.
8E-	.	8E-	8cL	2g	8ccL
8DJ	.	8DJ	8dJ	.	8b-J
4C	.	4C	4e-	.	2a
4D	.	4D	8dL	4f#X	.
.	.	.	8cJ	.	.
=12	=12	=12	=12	=12	=12
2.GG;	.	2.GG;	2.Bn;	2.d;	2.g;
=||	=||	=||	=||	=||	=||
*-	*-	*-	*-	*-	*-
!!!system-decoration: s1,s2,s3,s4,s5
